X:264
T: Die zehen Gebote Gottes
N: A0620A
O: Europa, Mitteleuropa, Deutschland
N: Erfurter Enchiridion I. 1524 No. 1
R: Romanze, Ballade, Lied, religioeses Lied
M: 4/1
L: 1/2
K: G
G | G2G2G2G2 | A2_B2c2z
c | d2d2c2G2 | A2_B2c2z
c | d2d2c2G2 | A2G2=F2z
F | A2_B2c4 | _B2G2B2A2 | G2G2G3

@@@ Tune index: 577
